Apricity Icons/16/panel/franz-panel.svg

<svg xmlns="http://www.w3.org/2000/svg" width="16" height="16" version="1.1">
 <defs>
  <style id="current-color-scheme" type="text/css">
   .ColorScheme-Text { color:#dfdfdf; } .ColorScheme-Highlight { color:#4285f4; }
  </style>
 </defs>
 <path style="fill:currentColor;fill-rule:evenodd" class="ColorScheme-Text" d="M 5.48825,5 C 4.9985833,5 4.4330833,6.1027 3.8345833,7.27 c -0.11175,0.217 -0.2205,0.428 -0.3255,0.625 C 3.1715833,8.601 2.7164167,9.707 2.277,10.002 1.90875,10.245 1.51025,10.404 1.193,10.404 0.97849997,10.404 0.89333333,10.326 0.87233333,10.303 0.72616667,10.137 0.55016666,10 0.41666666,10 0.22766666,10 0,10 0,10.5 0,12 2.55525,12.893 3.6881666,12.984 3.8464166,12.995 4.0081667,13 4.1731667,13 l 0.040667,0 C 5.4331667,12.975 6.53025,12.299 7.155,11.191 7.2833333,10.965 7.4675,11 7.5,11 c 0.0325,0 0.2166667,-0.035 0.345,0.191 0.625,1.108 1.7216663,1.784 2.940833,1.809 l 0.04083,0 c 0.165,0 0.326667,-0.006 0.485,-0.016 C 12.445,12.893 15,12 15,10.5 15,10 14.7725,10 14.583334,10 14.45,10 14.274167,10.137 14.1275,10.303 c -0.02083,0.023 -0.105834,0.101 -0.32,0.101 -0.3175,0 -0.715834,-0.159 -1.084166,-0.402 C 12.283333,9.707 11.828333,8.601 11.490833,7.895 11.385833,7.698 11.2775,7.487 11.165833,7.27 10.5675,6.1023 10.0025,4.9996 9.5125003,4.9996 9.165,4.9996 8.7625,5.2975 8.375,5.5855 8.0516666,5.8255 7.7183333,5.9996 7.5008333,5.9996 7.2833333,5.9996 6.95,5.8255 6.6265,5.5855 6.23875,5.2975 5.83675,4.9996 5.48875,4.9996 Z"/>
</svg>

<svg xmlns="http://www.w3.org/2000/svg" width="16" height="16"><defs><style id="current-color-scheme" type="text/css"></style></defs><path d="M5.488 5c-.49 0-1.055 1.103-1.653 2.27-.112.217-.22.428-.326.625-.337.706-.793 1.812-1.232 2.107-.368.243-.767.402-1.084.402-.215 0-.3-.078-.32-.101C.725 10.137.55 10 .416 10 .227 10 0 10 0 10.5c0 1.5 2.555 2.393 3.688 2.484a7 7 0 0 0 .485.016h.04c1.22-.025 2.317-.701 2.942-1.809.128-.226.313-.191.345-.191.033 0 .217-.035.345.191.625 1.108 1.722 1.784 2.94 1.809h.042c.165 0 .326-.006.485-.016C12.445 12.893 15 12 15 10.5c0-.5-.227-.5-.417-.5-.133 0-.309.137-.456.303-.02.023-.105.101-.32.101-.317 0-.715-.159-1.084-.402-.44-.295-.895-1.401-1.232-2.107-.105-.197-.213-.408-.325-.625C10.568 6.102 10.002 5 9.513 5c-.348 0-.75.298-1.138.585-.323.24-.657.415-.874.415-.218 0-.551-.175-.875-.415C6.24 5.298 5.837 5 5.49 5z" fill="currentColor" fill-rule="evenodd" color="#dfdfdf"/></svg>
